X:1
T:What Would You Give in Exchange?
T:What Would You Give in Exchange?
T:J. H. Carr
T:F. J. Berry, 1912
T:Public Domain Courtesy of the Cyber Hymnal™
T:Public Domain Courtesy of the Cyber Hymnal™
C:J. H. Carr
Z:Public Domain
Z:Courtesy of the Cyber Hymnal™
%%score ( 1 2 ) ( 3 4 )
L:1/8
Q:1/4=110
M:3/4
K:G
V:1 treble 
V:2 treble 
V:3 bass 
V:4 bass 
V:1
 D2 [DG]2 [GB]2 | [Gd]4 [Ge][Gd] | [DB]2 [EG]2 [FA]2 | G6 | D2 [DG]2 [DG]2 | [GB]4 [Bd][Ac] | %6
w: 1.~Bro- ther a-|far from the|Sav- ior to-|day,|Risk- ing your|soul for the|
w: 2.~Mer- cy is|call- ing you,|won’t you give|heed?|Must the dear|Sav- ior still|
w: 3.~More than the|sil- ver and|gold of the|earth–|More than all|jew- els thy|
w: 4.~If, when you|stand at the|bar by and|by,|When you are|weighed in the|
 [GB]2 [DA]2 [EG]2 | [FA]6 | D2 [DG]2 [GB]2 | [Gd]4 [Ge][Gd] | [DB]2 [EG]2 [FA]2 | G6 | %12
w: things that de-|cay;|O if to-|day God should|call it a-|way,|
w: ten- der- ly|lead?|Risk not your|soul, it is|pre- cious in-|deed;|
w: spir- it is|worth!|God, the Cre-|a- tor, has|giv- en it|birth!|
w: bal- ance on|high,|You should be|sen- tenced for-|ev- er to|die!|
 [EG]2 [DF]2 [CE]2 | [B,D]2 [DG]2 [GB]2 | [GB]3 [DG] [DA]2 | [DG]6 ||"^Refrain" [DB]2 [EG]2 [FA]2 | %17
w: What would you|give in ex-|change for your|soul?||
w: What would you|give in ex-|change for your|soul?|What would you|
w: What would you|give in ex-|change for your|soul?||
w: What would you|give in ex-|change for your|soul?||
 z x10 | [Gd]2 [G^c]2 [Gd]2 | B6 | [GB]2 [G^A]2 [GB]2 | [Gd]4 [Ge][Gd] | [DB]2 [EG]2 [EG]2 | %23
w: ||||||
w: |give? What would|you|give? What would|you give in|ex- change for|
w: ||||||
w: ||||||
 [FA]6 | [GB]2 [Gd]2 [GB]2 | [DG]4 [GB][GB] | [Gd]2 [Gd]2 [Gd]2 | [Gc]6 | [EG]2 [DF]2 [CE]2 | %29
w: ||||||
w: your|soul? O if|to- day God|should call it|a-|way, What would|
w: ||||||
w: ||||||
 [B,D]2 [DG]2 [GB]2 | [GB]3 [DG] [DA]2 | [DG]6 |] %32
w: |||
w: you give in|ex- change for|your|
w: |||
w: |||
V:2
 D2 x4 | x6 | x6 | G6 | D2 x4 | x6 | x6 | x6 | D2 x4 | x6 | x6 | G6 | x6 | x6 | x6 | x6 || x6 | %17
 G6 D E2 D2 | x6 | (GG G2 G2) | x6 | x6 | x6 | x6 | x6 | x6 | x6 | x6 | x6 | x6 | x6 | x6 |] %32
V:3
 [G,B,]2 [G,B,]2 [G,D]2 | [G,B,]4 [G,C][G,B,] | G,2 [E,B,]2 [D,C]2 | [G,B,]6 | %4
w: ||in * *||
 [G,B,]2 [G,B,]2 [G,B,]2 | [G,D]4 [G,D][G,D] | [G,D]2 [F,D]2 [E,^C]2 | [D,D]6 | %8
w: ||||
 [G,B,]2 [G,B,]2 [G,D]2 | [G,B,]4 [G,C][G,B,] | G,2 [E,B,]2 [D,C]2 | [G,B,]6 | %12
w: ||ex- * *||
 [C,C]2 [C,C]2 [C,G,]2 | [D,G,]2 [D,B,]2 [D,C]2 | [D,D]3 [D,B,] [D,C]2 | [G,,G,B,]6 || %16
w: ||||
 G,2 [E,B,]2 [D,C]2 | [G,B,][G,B,] [G,C]2 [G,B,]2 x5 | [G,B,]2 [G,^A,]2 [G,B,]2 | %19
w: change? * *|* ~ ~ ~|~ in ex-|
 [G,D][G,D] [G,E]2 [G,D]2 | [G,D]2 [G,^C]2 [G,D]2 | [G,B,]4 [G,C][G,B,] | G,2 [E,B,]2 [A,^C]2 | %23
w: change? * * *||||
 [D,D]6 | [G,D]2 [G,B,]2 [G,D]2 | [G,B,]4 [G,D][G,D] | [B,,=F]2 [B,,F]2 [B,,F]2 | [C,E]6 | %28
w: |||||
 [C,C]2 [C,C]2 [C,G,]2 | [D,G,]2 [D,B,]2 [D,C]2 | [D,D]3 [D,B,] [D,C]2 | [G,,G,B,]6 |] %32
w: ||||
V:4
 x6 | x6 | G,2 x4 | x6 | x6 | x6 | x6 | x6 | x6 | x6 | G,2 x4 | x6 | x6 | x6 | x6 | x6 || G,2 x4 | %17
 x11 | x6 | x6 | x6 | x6 | G,2 x4 | x6 | x6 | x6 | x6 | x6 | x6 | x6 | x6 | x6 |] %32

